icons/fill-new-office-folder-gear-setting.svg

<svg xmlns="http://www.w3.org/2000/svg" width="32px" height="32px" viewBox="0 0 32 32" version="1.1">
    <title>fill-new-office-folder-gear-setting</title>
    <g id="fill-new-office-folder-gear-setting" stroke-width="1" fill-rule="evenodd">
        <path d="M24.5,16.2886751 L29.5621778,19.2113249 C29.8715789,19.3899577 30.0621778,19.7200847 30.0621778,20.0773503 L30.0621778,25.9226497 C30.0621778,26.2799153 29.8715789,26.6100423 29.5621778,26.7886751 L24.5,29.7113249 C24.1905989,29.8899577 23.8094011,29.8899577 23.5,29.7113249 L18.4378222,26.7886751 C18.1284211,26.6100423 17.9378222,26.2799153 17.9378222,25.9226497 L17.9378222,20.0773503 C17.9378222,19.7200847 18.1284211,19.3899577 18.4378222,19.2113249 L23.5,16.2886751 C23.8094011,16.1100423 24.1905989,16.1100423 24.5,16.2886751 Z M12.0857864,4 C12.3510029,4 12.6053568,4.10535684 12.7928932,4.29289322 L16.2071068,7.70710678 C16.3946432,7.89464316 16.6489971,8 16.9142136,8 L29,8 C29.5522847,8 30,8.44771525 30,9 L30,17.154 L25,14.2679492 C24.4327647,13.9404557 23.7448709,13.9131646 23.1575259,14.1860758 L23,14.2679492 L16.9378222,17.7679492 C16.31902,18.1252148 15.9378222,18.7854688 15.9378222,19.5 L15.937,28 L3,28 C2.48716416,28 2.06449284,27.6139598 2.00672773,27.1166211 L2,27 L2,5 C2,4.44771525 2.44771525,4 3,4 L12.0857864,4 Z M24,21 C22.8954305,21 22,21.8954305 22,23 C22,24.1045695 22.8954305,25 24,25 C25.1045695,25 26,24.1045695 26,23 C26,21.8954305 25.1045695,21 24,21 Z" id="&#24418;&#29366;" />
    </g>
</svg>

<svg xmlns="http://www.w3.org/2000/svg" viewBox="0 0 32 32"><path fill="currentColor" d="m24.5 16.289 5.062 2.922a1 1 0 0 1 .5.866v5.846a1 1 0 0 1-.5.866L24.5 29.71a1 1 0 0 1-1 0l-5.062-2.922a1 1 0 0 1-.5-.866v-5.846a1 1 0 0 1 .5-.866L23.5 16.29a1 1 0 0 1 1 0M12.086 4a1 1 0 0 1 .707.293l3.414 3.414a1 1 0 0 0 .707.293H29a1 1 0 0 1 1 1v8.154l-5-2.886a2 2 0 0 0-1.842-.082l-.158.082-6.062 3.5a2 2 0 0 0-1 1.732l-.001 8.5H3a1 1 0 0 1-.993-.883L2 27V5a1 1 0 0 1 1-1zM24 21a2 2 0 1 0 0 4 2 2 0 0 0 0-4"/></svg>
